X:22
T:The Duke of Kent's Waltz
R:waltz
Z:2003 John Chambers &lt;jc@trillian.mit.edu&gt;
M:3/4
L:1/8
P:(AAB)
K:Cmaj clef=treble
P:A
[||: "C"c'b c'd' c'2 | "G7"b2 ga bg | "C"c'2 c2 c2 | c4 g2 |
"F"a2 a2 b2 | "C"c'2 g2 e2 | "Dm"f2 f2 e2 | "G7"e2 d4 :|
P:B
[|"G"G2 fe f2 | "C"eg fe dc | "G"G2 fe f2 | "C"eg fe dc |
"F"ag fg ab | "C"c'b ag fe | "Dm"ag fe dc | "G7"Bd cB AG |
"C"cB cd ef | "G"g^f ga bg | "Am"c'2 c2 c2 | c4 a2 |
"F"^g2 a2 a2 | "C"^f2 g2 g2 | "G7"f2 d2 B2 | "C" |]

